icon-themes/breeze_svg/cmd/lc_normalviewmode.svg

<svg viewBox="0 0 24 24" xmlns="http://www.w3.org/2000/svg"><path d="m4 4v1 15h1 14 1v-15-1zm1 1h4v1 1h-1-3zm5 0h4v1 1h-4v-1zm5 0h4v2h-3-1v-1zm-10 3h3 1v2h-4zm5 0h4v2h-4zm5 0h4v2h-4zm-10 3h4v2h-4zm5 0h4v2h-4zm5 0h4v2h-4zm-10 3h4v2h-1-3zm5 0h4v2h-4zm5 0h4v2h-4zm-10 3h3 1v1.099609.900391h-4zm5 0h4v2h-4zm5 0h4v2h-4z" fill="#4d4d4d"/></svg>

<svg viewBox="0 0 24 24" xmlns="http://www.w3.org/2000/svg">
  <path
     style="fill:#4d4d4d"
     d="m 4,4 v 1 15 h 1 14 1 V 5 4 Z M 5,5 H 9 V 6 7 H 8 5 Z m 5,0 h 4 V 6 7 H 10 V 6 Z m 5,0 h 4 V 7 H 16 15 V 6 Z M 5,8 h 3 1 v 2 H 5 Z m 5,0 h 4 v 2 h -4 z m 5,0 h 4 v 2 H 15 Z M 5,11 h 4 v 2 H 5 Z m 5,0 h 4 v 2 h -4 z m 5,0 h 4 v 2 H 15 Z M 5,14 h 4 v 2 H 8 5 Z m 5,0 h 4 v 2 h -4 z m 5,0 h 4 v 2 H 15 Z M 5,17 H 8 9 V 18.099609 19 H 5 Z m 5,0 h 4 v 2 h -4 z m 5,0 h 4 v 2 h -4 z"
     />
</svg>
